src/images/svg/logo-mlmv-manifest.inline.svg

<svg xmlns="http://www.w3.org/2000/svg" width="210" height="210" viewBox="0 0 210 210">
  <defs>
    <linearGradient id="logo-mlmv-manifest.inline-a" x1="50%" x2="50%" y1="0%" y2="40.846%">
      <stop offset="0%" stop-color="#464F6B"/>
      <stop offset="100%" stop-color="#7C87A4"/>
    </linearGradient>
    <linearGradient id="logo-mlmv-manifest.inline-b" x1="50%" x2="50%" y1="0%" y2="60.509%">
      <stop offset="0%" stop-color="#464F6B"/>
      <stop offset="67.504%" stop-color="#7C87A4"/>
    </linearGradient>
    <linearGradient id="logo-mlmv-manifest.inline-c" x1="43.379%" x2="35.684%" y1="54.323%" y2="100%">
      <stop offset="0%" stop-color="#6FFFE9"/>
      <stop offset="100%" stop-color="#6B9F99"/>
    </linearGradient>
  </defs>
  <g fill="none" fill-rule="evenodd" transform="translate(.878 .579)">
    <rect width="209" height="209"/>
    <g fill-rule="nonzero" transform="translate(6 16)">
      <path fill="url(#logo-mlmv-manifest.inline-a)" d="M161,176.037154 L197,176.037154 L197,15.0371542 C197,6.75288294 190.284271,0.0371541847 182,0.0371541847 L161,0.0371541847 L161,0.0371541847 L161,176.037154 Z"/>
      <path fill="url(#logo-mlmv-manifest.inline-b)" d="M36.4594362,0.0371541847 L15,0.0371541847 C6.71572875,0.0371541847 -1.94637426e-13,6.75288294 -1.95399252e-13,15.0371542 L-1.95399252e-13,176.037154 L-1.95399252e-13,176.037154 L36.4594362,176.037154 L36.4594362,0.0371541847 Z"/>
      <path fill="#6FFFE9" d="M41.7313881,52.5413559 L84.804065,176.037154 L114.585744,176.037154 L157.658421,51.3088629 C164.87761,28.6373726 169.684912,14.4242152 172.080327,8.66939081 C174.475743,2.91456639 176.7823,0.0371541847 179,0.0371541847 L144.341922,0.0371541847 C141.715737,-0.360520454 139.382816,2.43414621 137.343157,8.42115418 C135.303499,14.4081622 123.205319,51.9570996 101.048617,121.067967 L100.556358,121.067967 C77.0969235,51.559425 64.372075,14.0104875 62.3818127,8.42115418 C60.3915504,2.83182085 58.0550212,0.0371541847 55.3722251,0.0371541847 L19,0.0371541847 C20.8636891,0.0371541847 22.9437549,2.91115336 25.2401974,8.65915171 C27.53664,14.4071501 33.0337036,29.0345514 41.7313881,52.5413559 Z"/>
      <path fill="url(#logo-mlmv-manifest.inline-c)" d="M84.804065,176.037154 L114.585744,176.037154 L157.658421,51.3088629 C164.87761,28.6373726 169.684912,14.4242152 172.080327,8.66939081 C174.475743,2.91456639 176.7823,0.0371541847 179,0.0371541847 L144.341922,0.0371541847 C141.715737,-0.360520454 139.382816,2.43414621 137.343157,8.42115418 C135.303499,14.4081622 123.205319,51.9570996 101.048617,121.067967 L84.804065,176.037154 Z"/>
      <path fill="#E1F229" d="M41.7313881,52.5413559 L84.804065,176.037154 L114.585744,176.037154 L100.556358,121.067967 C77.0969235,51.559425 64.372075,14.0104875 62.3818127,8.42115418 C60.3915504,2.83182085 58.0550212,0.0371541847 55.3722251,0.0371541847 L19,0.0371541847 C20.8636891,0.0371541847 22.9437549,2.91115336 25.2401974,8.65915171 C27.53664,14.4071501 33.0337036,29.0345514 41.7313881,52.5413559 Z"/>
    </g>
  </g>
</svg>

<svg xmlns="http://www.w3.org/2000/svg" width="210" height="210"><defs><linearGradient id="a" x1="50%" x2="50%" y1="0%" y2="40.846%"><stop offset="0%" stop-color="#464F6B"/><stop offset="100%" stop-color="#7C87A4"/></linearGradient><linearGradient id="b" x1="50%" x2="50%" y1="0%" y2="60.509%"><stop offset="0%" stop-color="#464F6B"/><stop offset="67.504%" stop-color="#7C87A4"/></linearGradient><linearGradient id="c" x1="43.379%" x2="35.684%" y1="54.323%" y2="100%"><stop offset="0%" stop-color="#6FFFE9"/><stop offset="100%" stop-color="#6B9F99"/></linearGradient></defs><g fill="none" fill-rule="evenodd" transform="translate(.878 .579)"><path d="M0 0H209V209H0z"/><g fill-rule="nonzero"><path fill="url(#a)" d="M161 176.037h36v-161c0-8.284-6.716-15-15-15h-21v176z" transform="translate(6 16)"/><path fill="url(#b)" d="M36.46.037H15c-8.284 0-15 6.716-15 15v161h36.46v-176z" transform="translate(6 16)"/><path fill="#6FFFE9" d="M47.731 68.541l43.073 123.496h29.782L163.658 67.31c7.22-22.672 12.027-36.885 14.422-42.64 2.396-5.754 4.702-8.632 6.92-8.632h-34.658c-2.626-.398-4.96 2.397-6.999 8.384-2.04 5.987-14.138 43.536-36.294 112.647h-.493C83.096 67.559 70.372 30.01 68.382 24.421c-1.99-5.59-4.327-8.384-7.01-8.384H25c1.864 0 3.944 2.874 6.24 8.622 2.297 5.748 7.794 20.376 16.491 43.882z"/><path fill="url(#c)" d="M84.804 176.037h29.782L157.658 51.31c7.22-22.672 12.027-36.885 14.422-42.64 2.396-5.754 4.702-8.632 6.92-8.632h-34.658c-2.626-.398-4.96 2.397-6.999 8.384-2.04 5.987-14.138 43.536-36.294 112.647l-16.245 54.97z" transform="translate(6 16)"/><path fill="#E1F229" d="M47.731 68.541l43.073 123.496h29.782l-14.03-54.969C83.096 67.559 70.372 30.01 68.382 24.421c-1.99-5.59-4.327-8.384-7.01-8.384H25c1.864 0 3.944 2.874 6.24 8.622 2.297 5.748 7.794 20.376 16.491 43.882z"/></g></g></svg>
